X:1
T:Deh perche non
T:Deh perche non
T:Giovanni Croce Chiozotto
T:Aria prima
T:Source : Canzonette a 3 voci---Libro primo---Venetia---G.Vincenti---1601. Editor : André Vierendeels (12/02/15).
C:Giovanni Croce Ghiozotto
%%score [ 1 2 3 ]
L:1/8
Q:1/4=120
M:4/4
K:F
V:1 treble nm="Canto 1" snm="C 1"
V:2 treble nm="Canto 2" snm="C 2"
V:3 treble-8 nm="Tenor" snm="T"
V:1
 d2 d2 d4 | d2 d2 g4 | f2 d2 _e2 f2 | g2 fe d2 g2 | ^f2 g4 f2 |[M:2/4] g4 :: B4 |[M:4/4] BBBB c4 | %8
w: Deh per- che|non ho i-|o, vi- ta del|vi- * * * ver|mi- * *|o,|ben|mil- l'e mil- le co-|
w: Deh per- che|non ho i-|o, vi- ta del|vi- * * * ver|mi- * *|o,|co'i-|cor di mil- l'e mil-|
w: Deh per- che|non ho i-|o, vi- ta del|vi- * * * ver|mi- * *|o,|co'i|cor e l'al- me'an- co-|
w: Pren- di dun-|que'un sol co-|re, se- gno di|ve- * * * ro'a-|mo- * *|re,|e|l'al- ma'e'il spir- to'i- stes-|
 d4 d4 | c3 c c2 B2 | A4 G4 | c2 c2 A4 | G4 B4 | BBBB c4 | d4 d4 | c3 c c2 B2 | A4 G4 | c2 c2 A4 | %18
w: ri on-|d'io con mil- le|cor t'a-|mi'e t'a- do-|ri, ben|mil- l'e mil- le co-|ri on-|d'io con mil- le|cor t'a-|mi'e t'a- do-|
w: le'al- me|per dat- ti di|mil- l'e|mil- le pal-|me, co'i|cor mil- l'e mil- le'al|me per|dat- ti di me|mil- l'e|mil- le pal-|
w: ra spir-|ti ch'a mil- le'a|mil- le|si t'a- do-|ra, co'i|cor e l'al- me'an- co-|ra spir-|ti ch'a mil- le'a|mil- le|si t'a- do-|
w: so re-|sti nel pet- to|tuo gra-|tio- so'im- pres-|so, e|l'al- ma'e'il spir- to'i- stes-|so re-|sti nel pet- to|tuo gra-|tio- so'im- pres-|
 G8 :| %19
w: ri.|
w: me.|
w: ra.|
w: so.|
V:2
 B2 B2 B4 | A2 B2 G4 | A4 z4 | z2 A2 B2 c2 | d2 B2 A4 |[M:2/4] G4 :: B4 |[M:4/4] GGGB A4 | B4 B4 | %9
w: Deh per- che|non ho i-|o,|vi- ta del|vi- ver mi-|o,|ben|mil- l'e mil- le co-|ri on-|
w: Deh per- che|non ho i-|o,|vi- ta del|vi- ver mi-|o,|co'i|cor di mil- l'e mil-|le'al- me,|
w: Deh per- che|non ho i-|o,|vi- ta del|vi- ver mi-|o,|co'i|cor e l'al- me'an- co-|ra spir-|
w: Pren- di dun-|qu'un sol co-|re,|se- gno di|ve- ro'a- mo-|re|e|l'al- ma'e'il spir- to'i- stes-|so re-|
 A3 A A2 G2 | ^F4 G4 | G2 G2 ^F4 | G4 G4 | GGGB A4 | B4 B4 | A3 A A2 G2 | ^F4 G4 | G2 G2 ^F4 | %18
w: d'io con mil- le|cor t'a-|mi'e t'a- do-|ri, ben|mil- l'e mil- le co-|ri on-|d'io con mil- le|cor t'a-|mi'e t'a- do-|
w: per dat- ti di|mil- l'e|mil- le pal-|me, co'i|cor mil- l'e mil- l'e'al-|me per|dat- ti di me|mil- l'e|mil- le pal-|
w: ti ch'a mil- le'a|mil- le|di t'a- do-|ra, co'i|cor e l'al- me'an- co-|ra spir-|ti ch'a mil- le'a-|mil- le|si t'a- do-|
w: sti nel pet- to|tuo gra-|tio- so'im- pres-|so, e|l'am- ma'e'il spir- to'i- stes-|so re-|sti nel pet- to|tuo gra-|tio- so'im- pres-|
 G8 :| %19
w: ri.|
w: me.|
w: ra.|
w: so.|
V:3
 g2 g2 g4 | ^f2 g2 _e4 | d4 z2 d2 | _e2 f2 g2 e2 | d8 |[M:2/4] G4 :: _e4 |[M:4/4] _eeeg f4 | %8
w: Deh per- che|non ho i-|o, vi-|ta del vi- ver|mi-|o,|ben|mil- l'e mil- le co-|
w: Deh per- che|non ho i-|o, vi-|ta del vi- ver|mi-|o,|co'i|cor di mil- l'e mil-|
w: Deh pe- che|non ho i-|o, vi-|ta del vi- ver|mi-|o,|co'i|cor e l'al- me'an- co-|
w: Pren- di dun-|qu'un sol co-|re, se-|gno di ve- ro'a-|mo-|re,|e|l'al- ma'e'il spir- to'i- stes-|
 B4 B4 | f3 f f2 g2 | d4 _e4 | c2 c2 d4 | G4 _e4 | _eeeg f4 | B4 B4 | f3 f f2 g2 | d4 _e4 | %17
w: ri on-|d'io con mil- le|cor t'a-|mi'e t'a- do-|ri, ben|mil- l'e mil- le co-|ri on-|d'io con mil- me|cor t'a-|
w: le'al- me,|per dat- ti di|mil- l'e|mil- le pal-|me, co'i|cor mil- l'e mil- le'al-|me per|dat- ti di me|mil- l'e|
w: ra spir-|ti ch'a mil- le'a|mil- le|di t'a- do-|ra, co'i|cor e l'al- me'an- co-|ra spir-|ti ch'a mil- le'a|mil- le|
w: so re-|sti nel pet- to|tuo gra-|tio- so'im- pres-|so, e|l'al- ma'e'il spir- to'i- stes-|so re-|sti nel pet- to|tuo gra-|
 c2 c2 d4 | G8 :| %19
w: mi'e t'a- do-|ri.|
w: mil- le pal-|me.|
w: si t'a- do-|ra.|
w: tio- so'im- pres-|so.|

